X: 35187
T: Rooms Of Dooagh, The
R: jig
M: 6/8
K: Dmajor
dB||AFF dFF|ABA AdB|AFF dcd|efe edB|
AFF dFF|ABA A2a|^gfe dBA|1 Bee edB:|2 Bcd ef^g||
a3 afe|dBc def|a3 afe|fbb ba^g|
a3 afe|dBc def|a^gf edA|Bee ef^g|
a3 afe|dBc def|a3 afe|fbb ba^g|
af^g afe|dBc def|a^gf edA|Bef edB||

